src/assets/openship-ai-logo-updated.svg

<svg width="712" height="122" viewBox="0 0 712 122" fill="none" xmlns="http://www.w3.org/2000/svg">
<path d="M198.32 94.5362C191.6 94.5362 185.488 92.9682 179.984 89.8322C174.544 86.6322 170.256 82.2802 167.12 76.7762C163.984 71.2722 162.416 65.2242 162.416 58.6322C162.416 52.0402 163.984 45.9922 167.12 40.4882C170.256 34.9842 174.544 30.6642 179.984 27.5282C185.488 24.3282 191.6 22.7282 198.32 22.7282C205.04 22.7282 211.12 24.3282 216.56 27.5282C222.064 30.6642 226.384 34.9842 229.52 40.4882C232.656 45.9922 234.224 52.0402 234.224 58.6322C234.224 65.2242 232.656 71.2722 229.52 76.7762C226.384 82.2802 222.064 86.6322 216.56 89.8322C211.12 92.9682 205.04 94.5362 198.32 94.5362ZM198.32 82.2482C202.544 82.2482 206.416 81.2562 209.936 79.2722C213.456 77.2882 216.208 74.5042 218.192 70.9202C220.24 67.3362 221.264 63.2402 221.264 58.6322C221.264 54.0242 220.24 49.9282 218.192 46.3442C216.208 42.7602 213.456 39.9762 209.936 37.9922C206.416 36.0082 202.544 35.0162 198.32 35.0162C194.096 35.0162 190.224 36.0082 186.704 37.9922C183.248 39.9762 180.496 42.7602 178.448 46.3442C176.464 49.9282 175.472 54.0242 175.472 58.6322C175.472 63.2402 176.464 67.3362 178.448 70.9202C180.496 74.5042 183.248 77.2882 186.704 79.2722C190.224 81.2562 194.096 82.2482 198.32 82.2482ZM244.385 44.0402H256.193V49.9922H256.961C258.305 47.8802 260.257 46.1202 262.817 44.7122C265.377 43.2402 268.321 42.5042 271.649 42.5042C276.065 42.5042 280.065 43.6242 283.649 45.8642C287.297 48.0402 290.145 51.1122 292.193 55.0802C294.241 59.0482 295.265 63.5282 295.265 68.5202C295.265 73.5762 294.241 78.0882 292.193 82.0562C290.145 85.9602 287.297 89.0322 283.649 91.2722C280.065 93.4482 276.065 94.5362 271.649 94.5362C268.321 94.5362 265.345 93.8322 262.721 92.4242C260.161 91.0162 258.241 89.2562 256.961 87.1442H256.193L256.961 94.0562V113.736H244.385V44.0402ZM269.441 82.9202C271.809 82.9202 274.017 82.3122 276.065 81.0962C278.113 79.8802 279.745 78.1842 280.961 76.0082C282.177 73.8322 282.785 71.3362 282.785 68.5202C282.785 65.7042 282.177 63.2082 280.961 61.0322C279.745 58.8562 278.113 57.1922 276.065 56.0402C274.017 54.8242 271.809 54.2162 269.441 54.2162C267.137 54.2162 264.961 54.8242 262.913 56.0402C260.865 57.1922 259.233 58.8562 258.017 61.0322C256.801 63.2082 256.193 65.7042 256.193 68.5202C256.193 71.3362 256.801 73.8322 258.017 76.0082C259.233 78.1842 260.865 79.8802 262.913 81.0962C264.961 82.3122 267.137 82.9202 269.441 82.9202ZM327.901 94.5362C323.037 94.5362 318.653 93.4162 314.749 91.1762C310.845 88.9362 307.773 85.8642 305.533 81.9602C303.357 77.9922 302.269 73.5442 302.269 68.6162C302.269 63.9442 303.357 59.6242 305.533 55.6562C307.709 51.6242 310.717 48.4242 314.557 46.0562C318.397 43.6882 322.685 42.5042 327.421 42.5042C332.477 42.5042 336.829 43.5922 340.477 45.7682C344.125 47.9442 346.877 50.9202 348.733 54.6962C350.653 58.4722 351.613 62.6642 351.613 67.2722C351.613 68.7442 351.517 70.1522 351.325 71.4962H314.557C315.197 75.4002 316.733 78.3762 319.165 80.4242C321.661 82.4082 324.637 83.4002 328.093 83.4002C330.973 83.4002 333.437 82.7922 335.485 81.5762C337.597 80.2962 339.261 78.6002 340.477 76.4882L350.653 81.4802C345.661 90.1842 338.077 94.5362 327.901 94.5362ZM339.517 62.5682C339.389 61.0322 338.813 59.5282 337.789 58.0562C336.829 56.5202 335.453 55.2722 333.661 54.3122C331.933 53.2882 329.885 52.7762 327.517 52.7762C324.509 52.7762 321.917 53.6722 319.741 55.4642C317.629 57.1922 316.093 59.5602 315.133 62.5682H339.517ZM361.3 44.0402H373.108V50.1842H373.876C375.348 47.8162 377.428 45.9602 380.116 44.6162C382.804 43.2082 385.716 42.5042 388.852 42.5042C394.74 42.5042 399.22 44.2962 402.292 47.8802C405.364 51.4642 406.9 56.3602 406.9 62.5682V93.0002H394.324V64.1042C394.324 60.9682 393.524 58.5362 391.924 56.8082C390.324 55.0802 388.084 54.2162 385.204 54.2162C381.812 54.2162 379.06 55.5282 376.948 58.1522C374.9 60.7762 373.876 64.0722 373.876 68.0402V93.0002H361.3V44.0402ZM441.233 94.5362C435.217 94.5362 429.905 92.8402 425.297 89.4482C420.689 86.0562 417.457 81.2562 415.601 75.0482L427.793 70.2482C428.753 73.8962 430.385 76.8082 432.689 78.9842C434.993 81.1602 437.873 82.2482 441.329 82.2482C444.209 82.2482 446.673 81.5442 448.721 80.1362C450.769 78.6642 451.793 76.6482 451.793 74.0882C451.793 71.5282 450.801 69.4482 448.817 67.8482C446.897 66.1842 443.441 64.4242 438.449 62.5682L434.225 61.0322C429.809 59.4962 426.033 57.1602 422.897 54.0242C419.761 50.8242 418.193 46.8242 418.193 42.0242C418.193 38.4402 419.121 35.1762 420.977 32.2322C422.833 29.2882 425.457 26.9842 428.849 25.3202C432.241 23.5922 436.081 22.7282 440.369 22.7282C446.577 22.7282 451.473 24.2002 455.057 27.1442C458.641 30.0242 461.105 33.4162 462.449 37.3202L451.025 42.1202C450.321 40.0082 449.073 38.2482 447.281 36.8402C445.553 35.3682 443.313 34.6322 440.561 34.6322C437.745 34.6322 435.409 35.3042 433.553 36.6482C431.761 37.9282 430.865 39.6242 430.865 41.7362C430.865 43.7842 431.729 45.5442 433.457 47.0162C435.185 48.4242 438.033 49.8002 442.001 51.1442L446.321 52.5842C452.273 54.6322 456.817 57.3522 459.953 60.7442C463.153 64.0722 464.753 68.4562 464.753 73.8962C464.753 78.3762 463.601 82.1842 461.297 85.3202C458.993 88.3922 456.017 90.6962 452.369 92.2322C448.785 93.7682 445.073 94.5362 441.233 94.5362ZM475.3 24.2642H487.876V41.6402L487.108 50.1842H487.876C489.284 47.8802 491.332 46.0242 494.02 44.6162C496.708 43.2082 499.62 42.5042 502.756 42.5042C508.708 42.5042 513.252 44.2962 516.388 47.8802C519.588 51.4002 521.188 56.2962 521.188 62.5682V93.0002H508.612V64.1042C508.612 60.9682 507.748 58.5362 506.02 56.8082C504.356 55.0802 502.116 54.2162 499.3 54.2162C495.972 54.2162 493.22 55.5602 491.044 58.2482C488.932 60.9362 487.876 64.2322 487.876 68.1362V93.0002H475.3V24.2642ZM540.154 38.6642C537.914 38.6642 535.994 37.8642 534.394 36.2642C532.794 34.6642 531.994 32.7442 531.994 30.5042C531.994 28.2642 532.794 26.3762 534.394 24.8402C535.994 23.2402 537.914 22.4402 540.154 22.4402C542.394 22.4402 544.282 23.2402 545.818 24.8402C547.418 26.3762 548.218 28.2642 548.218 30.5042C548.218 32.7442 547.418 34.6642 545.818 36.2642C544.282 37.8642 542.394 38.6642 540.154 38.6642ZM533.818 44.0402H546.394V93.0002H533.818V44.0402ZM559.198 44.0402H571.006V49.9922H571.774C573.118 47.8802 575.07 46.1202 577.63 44.7122C580.19 43.2402 583.134 42.5042 586.462 42.5042C590.878 42.5042 594.878 43.6242 598.462 45.8642C602.11 48.0402 604.958 51.1122 607.006 55.0802C609.054 59.0482 610.078 63.5282 610.078 68.5202C610.078 73.5762 609.054 78.0882 607.006 82.0562C604.958 85.9602 602.11 89.0322 598.462 91.2722C594.878 93.4482 590.878 94.5362 586.462 94.5362C583.134 94.5362 580.158 93.8322 577.534 92.4242C574.974 91.0162 573.054 89.2562 571.774 87.1442H571.006L571.774 94.0562V113.736H559.198V44.0402ZM584.254 82.9202C586.622 82.9202 588.83 82.3122 590.878 81.0962C592.926 79.8802 594.558 78.1842 595.774 76.0082C596.99 73.8322 597.598 71.3362 597.598 68.5202C597.598 65.7042 596.99 63.2082 595.774 61.0322C594.558 58.8562 592.926 57.1922 590.878 56.0402C588.83 54.8242 586.622 54.2162 584.254 54.2162C581.95 54.2162 579.774 54.8242 577.726 56.0402C575.678 57.1922 574.046 58.8562 572.83 61.0322C571.614 63.2082 571.006 65.7042 571.006 68.5202C571.006 71.3362 571.614 73.8322 572.83 76.0082C574.046 78.1842 575.678 79.8802 577.726 81.0962C579.774 82.3122 581.95 82.9202 584.254 82.9202ZM640.793 24.2642H655.673L681.497 93.0002H667.193L661.433 76.5842H635.129L629.369 93.0002H615.065L640.793 24.2642ZM657.209 64.6802L651.161 47.4002L648.665 39.1442H647.897L645.401 47.4002L639.257 64.6802H657.209ZM690.778 24.2642H703.738V93.0002H690.778V24.2642Z" fill="url(#paint0_linear_1080_2147)"/>
<path d="M105.43 33.25C111.503 43.7673 114.024 55.9611 112.622 68.0243C111.22 80.0875 105.968 91.3777 97.645 100.221C89.3225 109.065 78.3714 114.992 66.4156 117.123C54.4599 119.255 42.1354 117.477 31.2693 112.054L35.9519 102.672C44.8011 107.088 54.8384 108.536 64.5755 106.8C74.3121 105.064 83.231 100.237 90.0092 93.035C96.7873 85.8326 101.065 76.6376 102.206 66.8134C103.349 56.9892 101.295 47.0582 96.3496 38.493L105.43 33.25Z" fill="url(#paint1_linear_1080_2147)"/>
<path d="M7.56964 89.7501C1.35198 78.9811 -1.13908 66.4609 0.482562 54.1322C2.10421 41.803 7.74803 30.3533 16.539 21.5581C25.33 12.7629 36.777 7.11367 49.105 5.4861C61.4338 3.85853 73.9545 6.34367 84.7266 12.5561L79.4878 21.6397C70.7152 16.5802 60.518 14.5563 50.4777 15.8818C40.4374 17.2073 31.1148 21.8081 23.9554 28.971C16.7959 36.1339 12.1996 45.4586 10.8789 55.4993C9.5582 65.5403 11.5869 75.7368 16.6506 84.507L7.56964 89.7501Z" fill="url(#paint2_linear_1080_2147)"/>
<path d="M92.7198 25.505C92.897 23.3563 95.1663 22.0463 97.1157 22.9671L110.68 29.3747C112.933 30.4387 113.062 33.5946 110.905 34.8401L96.1073 43.3836C93.9504 44.6291 91.2823 42.9386 91.4867 40.456L92.7198 25.505Z" fill="url(#paint3_linear_1080_2147)"/>
<path d="M22.5237 98.4127C22.3465 100.561 20.0774 101.871 18.128 100.951L4.56348 94.5429C2.31114 93.479 2.18116 90.323 4.33847 89.0776L19.1361 80.534C21.2934 79.2886 23.9616 80.9792 23.7568 83.4615L22.5237 98.4127Z" fill="url(#paint4_linear_1080_2147)"/>
<defs>
<linearGradient id="paint0_linear_1080_2147" x1="158" y1="61.0002" x2="712" y2="61.0002" gradientUnits="userSpaceOnUse">
<stop stop-color="#024EC9"/>
<stop offset="1" stop-color="#0061FF"/>
</linearGradient>
<linearGradient id="paint1_linear_1080_2147" x1="46.222" y1="107.886" x2="75.6631" y2="-79.7927" gradientUnits="userSpaceOnUse">
<stop stop-color="#024EC9"/>
<stop offset="1" stop-color="#4B8FFF"/>
</linearGradient>
<linearGradient id="paint2_linear_1080_2147" x1="66.7781" y1="15.114" x2="37.3372" y2="202.793" gradientUnits="userSpaceOnUse">
<stop stop-color="#024EC9"/>
<stop offset="1" stop-color="#4B8FFF"/>
</linearGradient>
<linearGradient id="paint3_linear_1080_2147" x1="87.1346" y1="31.4299" x2="137.323" y2="44.0291" gradientUnits="userSpaceOnUse">
<stop stop-color="#024EC9"/>
<stop offset="1" stop-color="#4B8FFF"/>
</linearGradient>
<linearGradient id="paint4_linear_1080_2147" x1="28.1092" y1="92.488" x2="-22.0791" y2="79.8888" gradientUnits="userSpaceOnUse">
<stop stop-color="#024EC9"/>
<stop offset="1" stop-color="#4B8FFF"/>
</linearGradient>
</defs>
</svg>

<svg width="712" height="122" fill="none" xmlns="http://www.w3.org/2000/svg"><path d="M198.32 94.536c-6.72 0-12.832-1.568-18.336-4.704-5.44-3.2-9.728-7.552-12.864-13.056-3.136-5.504-4.704-11.552-4.704-18.144 0-6.592 1.568-12.64 4.704-18.144 3.136-5.504 7.424-9.824 12.864-12.96 5.504-3.2 11.616-4.8 18.336-4.8 6.72 0 12.8 1.6 18.24 4.8 5.504 3.136 9.824 7.456 12.96 12.96 3.136 5.504 4.704 11.552 4.704 18.144 0 6.592-1.568 12.64-4.704 18.144-3.136 5.504-7.456 9.856-12.96 13.056-5.44 3.136-11.52 4.704-18.24 4.704zm0-12.288c4.224 0 8.096-.992 11.616-2.976 3.52-1.984 6.272-4.768 8.256-8.352 2.048-3.584 3.072-7.68 3.072-12.288 0-4.608-1.024-8.704-3.072-12.288-1.984-3.584-4.736-6.368-8.256-8.352-3.52-1.984-7.392-2.976-11.616-2.976-4.224 0-8.096.992-11.616 2.976-3.456 1.984-6.208 4.768-8.256 8.352-1.984 3.584-2.976 7.68-2.976 12.288 0 4.608.992 8.704 2.976 12.288 2.048 3.584 4.8 6.368 8.256 8.352 3.52 1.984 7.392 2.976 11.616 2.976zm46.065-38.208h11.808v5.952h.768c1.344-2.112 3.296-3.872 5.856-5.28 2.56-1.472 5.504-2.208 8.832-2.208 4.416 0 8.416 1.12 12 3.36 3.648 2.176 6.496 5.248 8.544 9.216 2.048 3.968 3.072 8.448 3.072 13.44 0 5.056-1.024 9.568-3.072 13.536-2.048 3.904-4.896 6.976-8.544 9.216-3.584 2.176-7.584 3.264-12 3.264-3.328 0-6.304-.704-8.928-2.112-2.56-1.408-4.48-3.168-5.76-5.28h-.768l.768 6.912v19.68h-12.576V44.04zm25.056 38.88a12.75 12.75 0 006.624-1.824c2.048-1.216 3.68-2.912 4.896-5.088 1.216-2.176 1.824-4.672 1.824-7.488 0-2.816-.608-5.312-1.824-7.488-1.216-2.176-2.848-3.84-4.896-4.992a12.75 12.75 0 00-6.624-1.824c-2.304 0-4.48.608-6.528 1.824-2.048 1.152-3.68 2.816-4.896 4.992-1.216 2.176-1.824 4.672-1.824 7.488 0 2.816.608 5.312 1.824 7.488 1.216 2.176 2.848 3.872 4.896 5.088 2.048 1.216 4.224 1.824 6.528 1.824zm58.46 11.616c-4.864 0-9.248-1.12-13.152-3.36-3.904-2.24-6.976-5.312-9.216-9.216-2.176-3.968-3.264-8.416-3.264-13.344 0-4.672 1.088-8.992 3.264-12.96 2.176-4.032 5.184-7.232 9.024-9.6 3.84-2.368 8.128-3.552 12.864-3.552 5.056 0 9.408 1.088 13.056 3.264 3.648 2.176 6.4 5.152 8.256 8.928 1.92 3.776 2.88 7.968 2.88 12.576 0 1.472-.096 2.88-.288 4.224h-36.768c.64 3.904 2.176 6.88 4.608 8.928 2.496 1.984 5.472 2.976 8.928 2.976 2.88 0 5.344-.608 7.392-1.824 2.112-1.28 3.776-2.976 4.992-5.088l10.176 4.992c-4.992 8.704-12.576 13.056-22.752 13.056zm11.616-31.968c-.128-1.536-.704-3.04-1.728-4.512-.96-1.536-2.336-2.784-4.128-3.744-1.728-1.024-3.776-1.536-6.144-1.536-3.008 0-5.6.896-7.776 2.688-2.112 1.728-3.648 4.096-4.608 7.104h24.384zM361.3 44.04h11.808v6.144h.768c1.472-2.368 3.552-4.224 6.24-5.568 2.688-1.408 5.6-2.112 8.736-2.112 5.888 0 10.368 1.792 13.44 5.376 3.072 3.584 4.608 8.48 4.608 14.688V93h-12.576V64.104c0-3.136-.8-5.568-2.4-7.296-1.6-1.728-3.84-2.592-6.72-2.592-3.392 0-6.144 1.312-8.256 3.936-2.048 2.624-3.072 5.92-3.072 9.888V93H361.3V44.04zm79.933 50.496c-6.016 0-11.328-1.696-15.936-5.088-4.608-3.392-7.84-8.192-9.696-14.4l12.192-4.8c.96 3.648 2.592 6.56 4.896 8.736 2.304 2.176 5.184 3.264 8.64 3.264 2.88 0 5.344-.704 7.392-2.112 2.048-1.472 3.072-3.488 3.072-6.048s-.992-4.64-2.976-6.24c-1.92-1.664-5.376-3.424-10.368-5.28l-4.224-1.536c-4.416-1.536-8.192-3.872-11.328-7.008-3.136-3.2-4.704-7.2-4.704-12 0-3.584.928-6.848 2.784-9.792 1.856-2.944 4.48-5.248 7.872-6.912 3.392-1.728 7.232-2.592 11.52-2.592 6.208 0 11.104 1.472 14.688 4.416 3.584 2.88 6.048 6.272 7.392 10.176l-11.424 4.8c-.704-2.112-1.952-3.872-3.744-5.28-1.728-1.472-3.968-2.208-6.72-2.208-2.816 0-5.152.672-7.008 2.016-1.792 1.28-2.688 2.976-2.688 5.088 0 2.048.864 3.808 2.592 5.28 1.728 1.408 4.576 2.784 8.544 4.128l4.32 1.44c5.952 2.048 10.496 4.768 13.632 8.16 3.2 3.328 4.8 7.712 4.8 13.152 0 4.48-1.152 8.288-3.456 11.424-2.304 3.072-5.28 5.376-8.928 6.912-3.584 1.536-7.296 2.304-11.136 2.304zM475.3 24.264h12.576V41.64l-.768 8.544h.768c1.408-2.304 3.456-4.16 6.144-5.568 2.688-1.408 5.6-2.112 8.736-2.112 5.952 0 10.496 1.792 13.632 5.376 3.2 3.52 4.8 8.416 4.8 14.688V93h-12.576V64.104c0-3.136-.864-5.568-2.592-7.296-1.664-1.728-3.904-2.592-6.72-2.592-3.328 0-6.08 1.344-8.256 4.032-2.112 2.688-3.168 5.984-3.168 9.888V93H475.3V24.264zm64.854 14.4c-2.24 0-4.16-.8-5.76-2.4-1.6-1.6-2.4-3.52-2.4-5.76 0-2.24.8-4.128 2.4-5.664 1.6-1.6 3.52-2.4 5.76-2.4 2.24 0 4.128.8 5.664 2.4 1.6 1.536 2.4 3.424 2.4 5.664 0 2.24-.8 4.16-2.4 5.76-1.536 1.6-3.424 2.4-5.664 2.4zm-6.336 5.376h12.576V93h-12.576V44.04zm25.38 0h11.808v5.952h.768c1.344-2.112 3.296-3.872 5.856-5.28 2.56-1.472 5.504-2.208 8.832-2.208 4.416 0 8.416 1.12 12 3.36 3.648 2.176 6.496 5.248 8.544 9.216 2.048 3.968 3.072 8.448 3.072 13.44 0 5.056-1.024 9.568-3.072 13.536-2.048 3.904-4.896 6.976-8.544 9.216-3.584 2.176-7.584 3.264-12 3.264-3.328 0-6.304-.704-8.928-2.112-2.56-1.408-4.48-3.168-5.76-5.28h-.768l.768 6.912v19.68h-12.576V44.04zm25.056 38.88a12.75 12.75 0 006.624-1.824c2.048-1.216 3.68-2.912 4.896-5.088 1.216-2.176 1.824-4.672 1.824-7.488 0-2.816-.608-5.312-1.824-7.488-1.216-2.176-2.848-3.84-4.896-4.992a12.75 12.75 0 00-6.624-1.824c-2.304 0-4.48.608-6.528 1.824-2.048 1.152-3.68 2.816-4.896 4.992-1.216 2.176-1.824 4.672-1.824 7.488 0 2.816.608 5.312 1.824 7.488 1.216 2.176 2.848 3.872 4.896 5.088 2.048 1.216 4.224 1.824 6.528 1.824zm56.539-58.656h14.88L681.497 93h-14.304l-5.76-16.416h-26.304L629.369 93h-14.304l25.728-68.736zm16.416 40.416l-6.048-17.28-2.496-8.256h-.768l-2.496 8.256-6.144 17.28h17.952zm33.569-40.416h12.96V93h-12.96V24.264z" fill="url(#paint0_linear_1080_2147)"/><path d="M105.43 33.25a56.497 56.497 0 01-7.785 66.971 56.496 56.496 0 01-66.376 11.833l4.683-9.382a46.017 46.017 0 0066.254-35.859 46.006 46.006 0 00-5.856-28.32l9.08-5.243z" fill="url(#paint1_linear_1080_2147)"/><path d="M7.57 89.75a56.5 56.5 0 0177.157-77.194l-5.24 9.084a46.013 46.013 0 00-62.836 62.867L7.57 89.75z" fill="url(#paint2_linear_1080_2147)"/><path d="M92.72 25.505c.177-2.149 2.446-3.459 4.396-2.538l13.564 6.408c2.253 1.064 2.382 4.22.225 5.465l-14.798 8.544c-2.157 1.245-4.825-.445-4.62-2.928l1.233-14.951z" fill="url(#paint3_linear_1080_2147)"/><path d="M22.524 98.413c-.178 2.148-2.447 3.458-4.396 2.538L4.563 94.543c-2.252-1.064-2.382-4.22-.225-5.465l14.798-8.544c2.157-1.245 4.826.445 4.62 2.927l-1.232 14.952z" fill="url(#paint4_linear_1080_2147)"/><defs><linearGradient id="paint0_linear_1080_2147" x1="158" y1="61" x2="712" y2="61" gradientUnits="userSpaceOnUse"><stop stop-color="#024EC9"/><stop offset="1" stop-color="#0061FF"/></linearGradient><linearGradient id="paint1_linear_1080_2147" x1="46.222" y1="107.886" x2="75.663" y2="-79.793" gradientUnits="userSpaceOnUse"><stop stop-color="#024EC9"/><stop offset="1" stop-color="#4B8FFF"/></linearGradient><linearGradient id="paint2_linear_1080_2147" x1="66.778" y1="15.114" x2="37.337" y2="202.793" gradientUnits="userSpaceOnUse"><stop stop-color="#024EC9"/><stop offset="1" stop-color="#4B8FFF"/></linearGradient><linearGradient id="paint3_linear_1080_2147" x1="87.135" y1="31.43" x2="137.323" y2="44.029" gradientUnits="userSpaceOnUse"><stop stop-color="#024EC9"/><stop offset="1" stop-color="#4B8FFF"/></linearGradient><linearGradient id="paint4_linear_1080_2147" x1="28.109" y1="92.488" x2="-22.079" y2="79.889" gradientUnits="userSpaceOnUse"><stop stop-color="#024EC9"/><stop offset="1" stop-color="#4B8FFF"/></linearGradient></defs></svg>
